svg/fluentui-system-icons/ic_fluent_edit_off_28_filled.svg

<svg width="28" height="28" viewBox="0 0 28 28" fill="none" xmlns="http://www.w3.org/2000/svg">
<path d="M16.2498 17.3107L24.7194 25.7805C25.0123 26.0734 25.4872 26.0734 25.7801 25.7805C26.073 25.4876 26.073 25.0127 25.7801 24.7198L3.28033 2.21967C2.98744 1.92678 2.51257 1.92677 2.21967 2.21967C1.92678 2.51256 1.92677 2.98743 2.21967 3.28033L10.6891 11.7499L4.5025 17.9367C4.06211 18.3771 3.74255 18.9235 3.57462 19.5233L2.02779 25.0477C1.95474 25.3086 2.02809 25.5886 2.21968 25.7802C2.41127 25.9718 2.69131 26.0452 2.95223 25.9721L8.47647 24.4254C9.07632 24.2575 9.62281 23.9379 10.0633 23.4974L16.2498 17.3107ZM12.8109 9.62796L18.3716 15.1887L22.2491 11.3111L16.6883 5.75041L12.8109 9.62796ZM19.2889 3.14976C20.8244 1.61415 23.3141 1.61414 24.8497 3.14974C26.3852 4.68527 26.3852 7.17482 24.8497 8.71037L23.3097 10.2504L17.749 4.68973L19.2889 3.14976Z" fill="#212121"/>
</svg>

<svg xmlns="http://www.w3.org/2000/svg" width="28" height="28"><path d="m16.25 17.31 8.47 8.47a.75.75 0 0 0 1.06-1.06L3.28 2.22a.75.75 0 1 0-1.06 1.06l8.47 8.47-6.187 6.187c-.44.44-.76.986-.928 1.586l-1.547 5.525a.75.75 0 0 0 .924.924l5.524-1.547a3.626 3.626 0 0 0 1.587-.928l6.187-6.186Zm-3.44-7.682 5.562 5.56 3.877-3.877-5.56-5.56-3.878 3.877Zm6.48-6.478a3.932 3.932 0 1 1 5.56 5.56l-1.54 1.54-5.56-5.56 1.54-1.54Z"/></svg>
